X: 39
M:2/4
L:1/8
K:G
(3D/E/F/|G/G/G/G/ B/dB/|c/B/c/A/ d3 (3D/E/F/|G/G/G/G/ B/dB/|
|:{A_B}=B>D G>A|B/_B/=B/_B/ =B<d|
{A_B}=B>D G>(Bc/)|d/e/d/B/ A2|{A_B}=B>D G>(Bc/)|



